%
(Generated by SketchUcam {1.2})
(File: BackplaneBlockCamLayout2.skp)
(Bit diameter: 0.500")
(Feed rate: 10.000"/min)
(Material Thickness: 0.394")
(Material length: 8.000" X width: 8.000")
(Overhead Gantry: false)
(Retract feed rate NOT limited to plunge feed rate)
(Optimization is ON)
(www.PhlatBoyz.com)
G90 G20 G49 
M3 S300
G0   Z0.250
 X1.125  Y3.0935
G1 z0
X3.0935 
Y1.1250
X1.1250     
Y2.8385
X2.8385
Y1.38
X1.38
Y2.5785
X2.5785
Y1.63
X1.63
Y2.3285
X2.3285
Y1.89
X1.89
Y2.1
X2.1   
G0   Z0.25    
G0 X-3 Y4 (home)
M05
M30
%
